img/icon-scissors.svg

<?xml version="1.0" encoding="UTF-8" standalone="no" ?>
<!DOCTYPE svg PUBLIC "-//W3C//DTD SVG 1.1//EN" "http://www.w3.org/Graphics/SVG/1.1/DTD/svg11.dtd">
<svg xmlns="http://www.w3.org/2000/svg" xmlns:xlink="http://www.w3.org/1999/xlink" version="1.1" width="1080" height="1080" viewBox="0 0 1080 1080" xml:space="preserve">
<desc>Created with Fabric.js 5.2.4</desc>
<defs>
</defs>
<rect x="0" y="0" width="100%" height="100%" fill="transparent"></rect>
<g transform="matrix(1 0 0 1 540 540)" id="d017695a-c01d-4ddc-bf4a-8af2e2cad79d"  >
<rect style="stroke: none; stroke-width: 1; stroke-dasharray: none; stroke-linecap: butt; stroke-dashoffset: 0; stroke-linejoin: miter; stroke-miterlimit: 4; fill: rgb(255,255,255); fill-rule: nonzero; opacity: 1; visibility: hidden;" vector-effect="non-scaling-stroke"  x="-540" y="-540" rx="0" ry="0" width="1080" height="1080" />
</g>
<g transform="matrix(1 0 0 1 540 540)" id="84298360-0fef-4234-ac02-a3080e0f8a11"  >
</g>
<g transform="matrix(NaN NaN NaN NaN 0 0)"  >
<g style=""   >
</g>
</g>
<g transform="matrix(NaN NaN NaN NaN 0 0)"  >
<g style=""   >
</g>
</g>
<g transform="matrix(NaN NaN NaN NaN 0 0)"  >
<g style=""   >
</g>
</g>
<g transform="matrix(NaN NaN NaN NaN 0 0)"  >
<g style=""   >
</g>
</g>
<g transform="matrix(2.04 0 0 2.04 540 540)" id="a9fb4d62-0d77-44e5-b219-14064d3cfd9d"  >
<path style="stroke: rgb(0,0,0); stroke-width: 0; stroke-dasharray: none; stroke-linecap: butt; stroke-dashoffset: 0; stroke-linejoin: miter; stroke-miterlimit: 4; fill: rgb(103,74,74); fill-rule: nonzero; opacity: 1;" vector-effect="non-scaling-stroke"  transform=" translate(-357.92, -271.4)" d="M 107.28 331.05 C 115.5066 356.73400000000004 136.19 370.10900000000004 169.346 371.159 C 170.3929 371.198062 171.4124 371.12775 172.3968 370.95197 C 175.2406 375.26447 178.60770000000002 379.41287 182.50580000000002 383.41697 C 197.06480000000002 398.47897 214.17780000000002 405.96797 233.85380000000004 405.86597 C 235.84600000000003 405.90893900000003 239.01790000000003 405.56909 243.34210000000004 404.85037 C 245.53350000000003 404.4949 246.92800000000005 404.29178 247.53740000000005 404.23318 L 248.65850000000006 404.23318 C 252.16630000000006 410.78008 257.10380000000004 417.33818 263.45950000000005 423.93218 L 263.5571570000001 424.029836 C 278.85815700000006 439.978836 295.49515700000006 447.79983599999997 313.4791570000001 447.50683599999996 C 329.1781570000001 447.43652399999996 342.9241570000001 443.05763599999995 354.7131570000001 434.33883599999996 C 368.2751570000001 424.366136 374.8111570000001 412.76483599999995 374.3181570000001 399.52983599999993 L 374.3181570000001 398.81499599999995 C 391.4901570000001 398.2407759999999 407.1381570000001 393.65089599999993 421.2791570000001 385.03799599999996 L 421.38462700000014 384.924716 C 440.28262700000016 373.072716 449.43962700000014 358.612716 448.84162700000013 341.541716 C 448.9549070000001 335.651116 448.00178700000015 329.97571600000003 445.97832700000015 324.486716 C 462.76732700000014 327.635116 479.91632700000014 330.350016 497.4313270000001 332.654716 C 533.6193270000001 337.400816 558.1933270000002 338.760216 571.1343270000001 336.736716 C 571.2046400000002 336.697653 571.2710470000001 336.662497 571.3413570000001 336.631246 C 588.1303570000001 334.02964599999996 601.0293570000001 324.67024599999996 610.0323570000002 308.561246 L 609.9268870000002 308.65890199999996 C 619.4229870000001 292.79190199999994 619.2237870000002 274.86590199999995 609.3096970000001 254.86190199999996 C 601.3018970000002 235.18190199999995 575.3716970000002 223.71390199999996 531.5246970000002 220.46690199999995 C 531.0129770000002 220.42393299999995 530.4973970000002 220.39268299999995 529.9934970000002 220.36143199999995 C 560.6304970000001 210.90833199999994 579.2784970000001 199.02543199999997 585.9314970000001 184.74043199999994 L 586.0369670000001 184.63496199999994 C 596.7399670000001 164.72896199999994 598.1969670000001 148.70096199999995 590.4314670000001 136.56096199999996 C 584.1033670000002 124.80696199999996 574.6154670000001 116.71696199999997 561.9514670000001 112.26396199999996 L 562.1506870000001 112.26396199999996 C 551.3696870000001 108.24446199999997 539.0916870000001 106.47876199999996 525.295687 106.95536199999997 L 525.088657 106.95536199999997 C 512.565657 107.06864199999997 487.518657 113.56866199999996 449.96765700000003 126.44336199999996 C 420.561657 136.50936199999995 396.162657 146.31036199999997 376.768657 155.84936199999996 C 371.93275700000004 147.16966199999996 365.19065700000004 138.33336199999997 356.557657 129.31036199999994 C 334.600657 106.38036199999993 310.440657 95.06436199999993 284.080657 95.31036199999994 C 265.43965699999995 94.81817199999995 244.24465699999996 104.18146199999994 220.48265699999996 123.38436199999994 C 206.40865699999995 134.31036199999994 194.64665699999995 151.14636199999995 185.15465699999996 173.90736199999995 C 179.43195699999995 170.92686199999994 173.68165699999994 169.56356199999996 167.91265699999997 169.82536199999996 C 146.83865699999996 169.01677199999995 129.88965699999997 181.49736199999995 117.07665699999997 207.29036199999996 C 108.36575699999997 224.98136199999996 102.67865699999997 244.45036199999996 100.02565699999997 265.68536199999994 C 97.30685699999997 287.4123619999999 99.72096699999997 309.18936199999996 107.27955699999997 331.04836199999994 z M 313.78 385.245 L 313.89327999999995 385.245 C 323.43237999999997 390.2411 333.43627999999995 393.8739 343.89727999999997 396.17900000000003 C 344.4715 397.34700000000004 345.20977999999997 398.4798 346.14338 399.54620000000006 C 345.659 403.9954000000001 342.93248 408.0384000000001 337.97538 411.69820000000004 C 330.97538 416.8584 322.81937999999997 419.40130000000005 313.47137999999995 419.35050000000007 C 302.9123799999999 419.05753000000004 293.04537999999997 414.12390000000005 283.86637999999994 404.54150000000004 L 283.7687229999999 404.44775000000004 C 275.2882229999999 395.65475000000004 270.82772299999993 387.08075 270.3897229999999 378.71375000000006 C 270.3897229999999 373.69815000000006 271.6397229999999 369.44815000000006 274.1670229999999 365.95175000000006 L 274.2646789999999 365.85409300000003 C 275.98737899999986 363.775993 278.0927789999999 362.69389300000006 280.60057899999987 362.592393 C 281.7685789999999 362.58458 282.5497789999999 362.58458 282.94827899999984 362.592393 C 283.07327899999984 362.61583 283.16702899999984 362.654893 283.26468899999986 362.69786300000004 L 282.85452899999984 362.69786300000004 C 284.44832899999983 363.48302300000006 286.05372899999986 363.95956300000006 287.65142899999984 364.123663 C 293.54592899999983 372.111963 302.25642899999986 379.14666300000005 313.78042899999986 385.244663 z M 142.39 219.785 C 149.183 206.07 157.69099999999997 198.824 167.91299999999998 198.031 C 170.4013 198.36694 172.95989999999998 199.5232 175.56529999999998 201.5037 C 173.4989 208.65990000000002 171.5887 216.2187 169.84259999999998 224.17170000000002 C 169.02618999999999 227.95290000000003 169.67462999999998 231.4959 171.79179999999997 234.78470000000002 C 173.88159999999996 238.0816 176.81129999999996 240.15970000000002 180.56519999999998 241.0113 C 184.35429999999997 241.83161 187.90899999999996 241.18708 191.18619999999999 239.0777 C 194.4792 236.9879 196.5573 234.0582 197.42059999999998 230.2925 C 206.45969999999997 189.0075 220.07659999999998 160.6675 238.2446 145.26549999999997 C 255.59959999999998 131.25349999999997 270.8736 124.00349999999997 284.0846 123.51149999999997 C 302.9046 123.79665999999997 320.2606 132.23419999999996 336.14660000000003 148.82749999999996 L 336.14660000000003 148.72202999999996 C 346.22060000000005 159.25702999999996 352.99060000000003 169.43702999999996 356.45560000000006 179.24202999999997 C 356.49466300000006 179.34749999999997 356.5298190000001 179.44905999999997 356.56888000000004 179.54671999999997 C 357.62748000000005 183.32791999999998 358.18608000000006 187.10531999999998 358.19778 190.87871999999996 C 358.19778 197.36311999999995 356.79938000000004 202.66371999999996 354.01808 206.80871999999997 C 351.57278 209.96891999999997 348.12748 211.46891999999997 343.70208 211.29311999999996 C 337.03018000000003 211.12514999999996 330.94008 208.33221999999995 325.43208000000004 202.92981999999995 C 316.46728 194.04311999999996 309.90108000000004 187.64881999999994 305.73308000000003 183.73481999999996 C 305.17449000000005 182.28951999999995 304.30728000000005 180.92231999999996 303.18228000000005 179.64501999999996 C 300.76038000000005 176.96141999999995 297.76428000000004 175.43801999999997 294.20178000000004 175.05121999999997 C 290.60408000000007 174.65277999999998 287.33068000000003 175.50433999999998 284.39708 177.60201999999998 C 281.47908 179.74262 279.64318000000003 182.56681999999998 278.88928000000004 186.07861999999997 C 277.39708 191.05131999999998 278.14709000000005 197.92661999999999 281.12368000000004 206.69161999999997 C 281.20961800000003 206.78536999999997 281.26821 206.89083999999997 281.33071 207.00411999999997 C 282.83461 211.09791999999996 283.69011 214.09001999999998 283.88151 215.98461999999998 C 283.6276 224.75802 279.95571 233.84362 272.86151 243.24262 C 266.33421 251.84032 259.52551 256.86762 252.44751000000002 258.35161999999997 C 248.64671 258.91020999999995 245.57251000000002 260.74611999999996 243.25611000000004 263.86332 C 240.88501000000002 267.00392 239.97881000000004 270.51562 240.49831000000003 274.37932 C 241.05690000000004 278.18012 242.89281000000003 281.25042 246.01781000000003 283.57072 C 249.16621000000004 285.93012 252.66231000000002 286.84802 256.52581000000004 286.32072 C 270.40081000000004 284.80902 283.33781000000005 276.09072 295.31481 260.18772 C 303.65071 249.16772 308.89281 238.33972 311.02581000000004 227.72672 C 320.95551000000006 235.69552 331.84581000000003 239.60972 343.69381000000004 239.46872 C 357.73281000000003 239.332 368.68981 234.09372 376.56481 223.74972 L 376.67809 223.54269 C 383.13509 215.16769 386.37729 204.27268999999998 386.37729 190.87469 C 386.385103 188.23019 386.24838 185.57388999999998 385.97104 182.91769 C 404.91204 173.32389 429.30704000000003 163.42168999999998 459.16204000000005 153.21469 C 492.71704000000005 141.67168999999998 514.97104 135.64869 525.9200400000001 135.14068999999998 L 526.11926 135.14068999999998 C 535.93956 134.81646999999998 544.6812600000001 136.04303 552.35726 138.81649 L 552.56429 138.81649 C 558.4001900000001 140.89459 562.7982900000001 144.64848999999998 565.72429 150.04648999999998 C 567.50949 155.28479 565.97429 162.39048999999997 561.13839 171.38248999999996 L 561.2438599999999 171.28873999999996 C 553.9704599999999 182.22273999999996 533.62286 191.54273999999995 500.1968599999999 199.24973999999997 L 500.3023299999999 199.15208399999997 C 460.8413299999999 208.09348399999996 423.65032999999994 217.98808399999996 388.72232999999994 228.85508399999998 C 385.2457299999999 229.94888399999996 382.59342999999996 232.09728399999997 380.76532999999995 235.280884 C 378.8981299999999 238.468384 378.35912999999994 241.839484 379.12862999999993 245.38588399999998 C 379.9606599999999 248.944484 381.8981299999999 251.76478399999996 384.9606299999999 253.86638399999998 C 387.95282999999995 255.987484 391.2575299999999 256.803884 394.8590299999999 256.31168399999996 C 448.79302999999993 248.72188399999996 493.6790299999999 246.17468399999996 529.49903 248.65938399999996 C 559.21803 250.85468399999996 577.3860299999999 257.08518399999997 584.0190299999999 267.33938399999994 C 589.0776299999999 277.56938399999996 589.5620299999999 286.70238399999994 585.4448299999999 294.8043839999999 L 585.3393599999999 294.90204099999994 C 581.00736 302.75364099999996 574.84336 307.41404099999994 566.86636 308.89004099999994 L 567.06558 308.77676099999996 C 555.5185799999999 310.29626099999996 533.52658 308.93301099999996 501.1245799999999 304.70256099999995 C 467.6595799999999 300.30416099999997 435.54257999999993 294.3935609999999 404.7695799999999 286.94456099999996 C 401.9062799999999 286.00315099999995 398.9140799999999 285.28836099999995 395.7773799999999 284.796161 C 395.52346999999986 284.75319199999996 395.2929999999999 284.72194199999996 395.07425999999987 284.69069099999996 C 393.8164599999999 284.56178099999994 392.48445999999984 284.41725099999996 391.0859599999999 284.28444099999996 C 387.2265599999999 283.87819099999996 383.78125999999986 284.90163099999995 380.77695999999986 287.34694099999996 C 377.7730599999999 289.811741 376.06215999999984 292.983641 375.6792599999999 296.84304099999997 C 375.2730099999999 300.694641 376.2964499999999 304.136041 378.7339599999999 307.140041 C 381.21055999999993 310.159541 384.3784599999999 311.854841 388.2300599999999 312.249441 C 389.2925599999999 312.36272099999996 390.3159599999999 312.468191 391.2925599999999 312.561941 C 391.5308399999999 312.60490899999996 391.76521999999994 312.63615899999996 392.0073999999999 312.667411 C 393.1401999999999 312.886161 394.2612999999999 313.151791 395.37459999999993 313.48382100000003 C 395.68709999999993 313.62054100000006 396.0230399999999 313.757261 396.3940999999999 313.89007100000003 C 401.43319999999994 315.64007100000003 406.2260999999999 318.538471 410.78509999999994 322.56977100000006 L 410.89056999999997 322.6752410000001 C 417.14446999999996 328.4252410000001 420.40617 334.7222410000001 420.69136999999995 341.55824100000007 C 420.10152999999997 348.98014100000006 415.37886999999995 355.4762410000001 406.50037 361.05824100000007 L 406.61364999999995 360.95277100000004 C 395.87964999999997 367.51527100000004 383.91065 370.77697100000006 370.6796499999999 370.753571 C 354.9296499999999 370.784821 340.35964999999993 367.31217100000003 326.99164999999994 360.33957100000003 L 327.0893059999999 360.33957100000003 C 314.2343059999999 353.53877100000005 307.4643059999999 344.95657100000005 306.7803059999999 334.616571 C 306.6670259999999 330.722071 308.24910599999987 327.89777100000003 311.47170599999987 326.136071 L 311.3740499999999 326.249351 C 316.1045499999999 323.932951 322.2650499999999 322.776651 329.8470499999999 322.776651 C 332.4720499999999 323.09306100000003 337.9915499999999 324.862551 346.3860499999999 328.085251 C 346.48370599999987 328.124314 346.5774599999999 328.167282 346.6907399999999 328.18290800000005 C 354.8469399999999 331.53840800000006 359.78073999999987 333.74540800000005 361.4917399999999 334.81570800000003 C 364.4487399999999 337.386008 367.8433399999999 338.54230800000005 371.7027399999999 338.288408 C 375.5621399999999 337.995438 378.7574399999999 336.358708 381.2965399999999 333.397808 C 383.8707399999999 330.448608 385.0231399999999 327.046208 384.7731399999999 323.186808 C 384.4606399999999 319.33520799999997 382.8239399999999 316.136008 379.8708399999999 313.593008 C 377.53103999999985 311.139908 369.9020399999999 307.264908 356.9998399999999 301.956008 C 356.8865599999999 301.924758 356.7928099999999 301.893508 356.6951499999999 301.850538 C 343.2071499999999 296.678638 334.2651499999999 294.27243799999997 329.8511499999999 294.600538 C 316.7531499999999 294.58882 306.1631499999999 296.83493799999997 298.1051499999999 301.33883799999995 L 297.99186999999995 301.444308 C 285.2068699999999 308.362308 278.75386999999995 319.35830799999997 278.59686999999997 334.409308 C 268.18287 334.862428 259.43287 339.467908 252.36986999999996 348.190308 L 252.25658999999996 348.303588 C 245.99878999999996 356.006688 242.66678999999996 365.432588 242.25658999999996 376.569588 C 241.24878999999996 376.69849800000003 240.09248999999997 376.874278 238.77998999999997 377.08130800000004 L 238.68233399999997 377.08130800000004 C 236.47923399999996 377.45630800000004 234.88153399999996 377.65942800000005 233.88543399999998 377.69849800000003 C 221.98743399999998 377.60474800000003 211.608434 372.97579800000005 202.74843399999997 363.82349800000003 C 194.19373399999998 355.061798 189.60043399999998 345.124498 188.97843399999996 334.018498 C 188.78702399999997 330.12399800000003 187.25573399999996 326.87009800000004 184.37293399999996 324.21769800000004 C 181.50573399999996 321.580998 178.12683399999995 320.35829800000005 174.27493399999994 320.54189800000006 C 170.38433399999994 320.72158800000005 167.11873399999993 322.25279800000004 164.48193399999994 325.12779800000004 C 161.84513399999994 328.00279800000004 160.61863399999993 331.36999800000007 160.79833399999993 335.23279800000006 C 160.89598999999993 337.59219800000005 161.10302399999992 339.90469800000005 161.40770399999994 342.1819980000001 C 147.52070399999994 339.9163980000001 138.32970399999994 333.14289800000006 133.85670399999995 321.8659980000001 C 127.79030399999995 304.2369980000001 125.86060399999995 286.6899980000001 128.02080399999994 269.1939980000001 C 130.24350399999994 251.22499800000008 135.04030399999994 234.7559980000001 142.38380399999994 219.78399800000008 z" stroke-linecap="round" />
</g>
<g transform="matrix(NaN NaN NaN NaN 0 0)"  >
<g style=""   >
</g>
</g>
</svg>

<?xml version="1.0" encoding="UTF-8" standalone="no" ?>
<!DOCTYPE svg PUBLIC "-//W3C//DTD SVG 1.1//EN" "http://www.w3.org/Graphics/SVG/1.1/DTD/svg11.dtd">
<svg xmlns="http://www.w3.org/2000/svg" xmlns:xlink="http://www.w3.org/1999/xlink" version="1.1" width="640" height="480" viewBox="0 0 640 480" xml:space="preserve">
<desc>Created with Fabric.js 3.6.6</desc>
<defs>
</defs>
<g transform="matrix(1.17 0 0 1.17 316.59 244.64)"  >
<path style="stroke: none; stroke-width: 1; stroke-dasharray: none; stroke-linecap: butt; stroke-dashoffset: 0; stroke-linejoin: miter; stroke-miterlimit: 4; fill: rgb(255,255,255); fill-rule: nonzero; opacity: 1;"  transform=" translate(-357.92, -271.4)" d="m 107.28 331.05 c 8.2266 25.684 28.91 39.059 62.066 40.109 c 1.0469 0.039062 2.0664 -0.03125 3.0508 -0.20703 c 2.8438 4.3125 6.2109 8.4609 10.109 12.465 c 14.559 15.062 31.672 22.551 51.348 22.449 c 1.9922 0.042969 5.1641 -0.29688 9.4883 -1.0156 c 2.1914 -0.35547 3.5859 -0.55859 4.1953 -0.61719 h 1.1211 c 3.5078 6.5469 8.4453 13.105 14.801 19.699 l 0.097657 0.097656 c 15.301 15.949 31.938 23.77 49.922 23.477 c 15.699 -0.070312 29.445 -4.4492 41.234 -13.168 c 13.562 -9.9727 20.098 -21.574 19.605 -34.809 v -0.71484 c 17.172 -0.57422 32.82 -5.1641 46.961 -13.777 l 0.10547 -0.11328 c 18.898 -11.852 28.055 -26.312 27.457 -43.383 c 0.11328 -5.8906 -0.83984 -11.566 -2.8633 -17.055 c 16.789 3.1484 33.938 5.8633 51.453 8.168 c 36.188 4.7461 60.762 6.1055 73.703 4.082 c 0.070313 -0.039063 0.13672 -0.074219 0.20703 -0.10547 c 16.789 -2.6016 29.688 -11.961 38.691 -28.07 l -0.10547 0.097656 c 9.4961 -15.867 9.2969 -33.793 -0.61719 -53.797 c -8.0078 -19.68 -33.938 -31.148 -77.785 -34.395 c -0.51172 -0.042969 -1.0273 -0.074219 -1.5312 -0.10547 c 30.637 -9.4531 49.285 -21.336 55.938 -35.621 l 0.10547 -0.10547 c 10.703 -19.906 12.16 -35.934 4.3945 -48.074 c -6.3281 -11.754 -15.816 -19.844 -28.48 -24.297 h 0.19922 c -10.781 -4.0195 -23.059 -5.7852 -36.855 -5.3086 h -0.20703 c -12.523 0.11328 -37.57 6.6133 -75.121 19.488 c -29.406 10.066 -53.805 19.867 -73.199 29.406 c -4.8359 -8.6797 -11.578 -17.516 -20.211 -26.539 c -21.957 -22.93 -46.117 -34.246 -72.477 -34 c -18.641 -0.49219 -39.836 8.8711 -63.598 28.074 c -14.074 10.926 -25.836 27.762 -35.328 50.523 c -5.7227 -2.9805 -11.473 -4.3438 -17.242 -4.082 c -21.074 -0.80859 -38.023 11.672 -50.836 37.465 c -8.7109 17.691 -14.398 37.16 -17.051 58.395 c -2.7188 21.727 -0.30469 43.504 7.2539 65.363 z m 206.5 54.195 h 0.11328 c 9.5391 4.9961 19.543 8.6289 30.004 10.934 c 0.57422 1.168 1.3125 2.3008 2.2461 3.3672 c -0.48438 4.4492 -3.2109 8.4922 -8.168 12.152 c -7 5.1602 -15.156 7.7031 -24.504 7.6523 c -10.559 -0.29297 -20.426 -5.2266 -29.605 -14.809 l -0.097657 -0.09375 c -8.4805 -8.793 -12.941 -17.367 -13.379 -25.734 c 0 -5.0156 1.25 -9.2656 3.7773 -12.762 l 0.097656 -0.097657 c 1.7227 -2.0781 3.8281 -3.1602 6.3359 -3.2617 c 1.168 -0.007813 1.9492 -0.007813 2.3477 0 c 0.125 0.023437 0.21875 0.0625 0.31641 0.10547 h -0.41016 c 1.5938 0.78516 3.1992 1.2617 4.7969 1.4258 c 5.8945 7.9883 14.605 15.023 26.129 21.121 z m -171.39 -165.46 c 6.793 -13.715 15.301 -20.961 25.523 -21.754 c 2.4883 0.33594 5.0469 1.4922 7.6523 3.4727 c -2.0664 7.1562 -3.9766 14.715 -5.7227 22.668 c -0.81641 3.7812 -0.16797 7.3242 1.9492 10.613 c 2.0898 3.2969 5.0195 5.375 8.7734 6.2266 c 3.7891 0.82031 7.3438 0.17578 10.621 -1.9336 c 3.293 -2.0898 5.3711 -5.0195 6.2344 -8.7852 c 9.0391 -41.285 22.656 -69.625 40.824 -85.027 c 17.355 -14.012 32.629 -21.262 45.84 -21.754 c 18.82 0.28516 36.176 8.7227 52.062 25.316 v -0.10547 c 10.074 10.535 16.844 20.715 20.309 30.52 c 0.039063 0.10547 0.074219 0.20703 0.11328 0.30469 c 1.0586 3.7812 1.6172 7.5586 1.6289 11.332 c 0 6.4844 -1.3984 11.785 -4.1797 15.93 c -2.4453 3.1602 -5.8906 4.6602 -10.316 4.4844 c -6.6719 -0.16797 -12.762 -2.9609 -18.27 -8.3633 c -8.9648 -8.8867 -15.531 -15.281 -19.699 -19.195 c -0.55859 -1.4453 -1.4258 -2.8125 -2.5508 -4.0898 c -2.4219 -2.6836 -5.418 -4.207 -8.9805 -4.5938 c -3.5977 -0.39844 -6.8711 0.45312 -9.8047 2.5508 c -2.918 2.1406 -4.7539 4.9648 -5.5078 8.4766 c -1.4922 4.9727 -0.74219 11.848 2.2344 20.613 c 0.085938 0.09375 0.14453 0.19922 0.20703 0.3125 c 1.5039 4.0938 2.3594 7.0859 2.5508 8.9805 c -0.25391 8.7734 -3.9258 17.859 -11.02 27.258 c -6.5273 8.5977 -13.336 13.625 -20.414 15.109 c -3.8008 0.55859 -6.875 2.3945 -9.1914 5.5117 c -2.3711 3.1406 -3.2773 6.6523 -2.7578 10.516 c 0.55859 3.8008 2.3945 6.8711 5.5195 9.1914 c 3.1484 2.3594 6.6445 3.2773 10.508 2.75 c 13.875 -1.5117 26.812 -10.23 38.789 -26.133 c 8.3359 -11.02 13.578 -21.848 15.711 -32.461 c 9.9297 7.9688 20.82 11.883 32.668 11.742 c 14.039 -0.13672 24.996 -5.375 32.871 -15.719 l 0.11328 -0.20703 c 6.457 -8.375 9.6992 -19.27 9.6992 -32.668 c 0.007813 -2.6445 -0.12891 -5.3008 -0.40625 -7.957 c 18.941 -9.5938 43.336 -19.496 73.191 -29.703 c 33.555 -11.543 55.809 -17.566 66.758 -18.074 h 0.19922 c 9.8203 -0.32422 18.562 0.90234 26.238 3.6758 h 0.20703 c 5.8359 2.0781 10.234 5.832 13.16 11.23 c 1.7852 5.2383 0.25 12.344 -4.5859 21.336 l 0.10547 -0.09375 c -7.2734 10.934 -27.621 20.254 -61.047 27.961 l 0.10547 -0.097656 c -39.461 8.9414 -76.652 18.836 -111.58 29.703 c -3.4766 1.0938 -6.1289 3.2422 -7.957 6.4258 c -1.8672 3.1875 -2.4062 6.5586 -1.6367 10.105 c 0.83203 3.5586 2.7695 6.3789 5.832 8.4805 c 2.9922 2.1211 6.2969 2.9375 9.8984 2.4453 c 53.934 -7.5898 98.82 -10.137 134.64 -7.6523 c 29.719 2.1953 47.887 8.4258 54.52 18.68 c 5.0586 10.23 5.543 19.363 1.4258 27.465 l -0.10547 0.097657 c -4.332 7.8516 -10.496 12.512 -18.473 13.988 l 0.19922 -0.11328 c -11.547 1.5195 -33.539 0.15625 -65.941 -4.0742 c -33.465 -4.3984 -65.582 -10.309 -96.355 -17.758 c -2.8633 -0.94141 -5.8555 -1.6562 -8.9922 -2.1484 c -0.25391 -0.042969 -0.48438 -0.074219 -0.70312 -0.10547 c -1.2578 -0.12891 -2.5898 -0.27344 -3.9883 -0.40625 c -3.8594 -0.40625 -7.3047 0.61719 -10.309 3.0625 c -3.0039 2.4648 -4.7148 5.6367 -5.0977 9.4961 c -0.40625 3.8516 0.61719 7.293 3.0547 10.297 c 2.4766 3.0195 5.6445 4.7148 9.4961 5.1094 c 1.0625 0.11328 2.0859 0.21875 3.0625 0.3125 c 0.23828 0.042968 0.47266 0.074218 0.71484 0.10547 c 1.1328 0.21875 2.2539 0.48438 3.3672 0.81641 c 0.3125 0.13672 0.64844 0.27344 1.0195 0.40625 c 5.0391 1.75 9.832 4.6484 14.391 8.6797 l 0.10547 0.10547 c 6.2539 5.75 9.5156 12.047 9.8008 18.883 c -0.58984 7.4219 -5.3125 13.918 -14.191 19.5 l 0.11328 -0.10547 c -10.734 6.5625 -22.703 9.8242 -35.934 9.8008 c -15.75 0.03125 -30.32 -3.4414 -43.688 -10.414 h 0.097656 c -12.855 -6.8008 -19.625 -15.383 -20.309 -25.723 c -0.11328 -3.8945 1.4688 -6.7188 4.6914 -8.4805 l -0.097656 0.11328 c 4.7305 -2.3164 10.891 -3.4727 18.473 -3.4727 c 2.625 0.31641 8.1445 2.0859 16.539 5.3086 c 0.097656 0.039063 0.19141 0.082031 0.30469 0.097657 c 8.1562 3.3555 13.09 5.5625 14.801 6.6328 c 2.957 2.5703 6.3516 3.7266 10.211 3.4727 c 3.8594 -0.29297 7.0547 -1.9297 9.5938 -4.8906 c 2.5742 -2.9492 3.7266 -6.3516 3.4766 -10.211 c -0.3125 -3.8516 -1.9492 -7.0508 -4.9023 -9.5938 c -2.3398 -2.4531 -9.9688 -6.3281 -22.871 -11.637 c -0.11328 -0.03125 -0.20703 -0.0625 -0.30469 -0.10547 c -13.488 -5.1719 -22.43 -7.5781 -26.844 -7.25 c -13.098 -0.011718 -23.688 2.2344 -31.746 6.7383 l -0.11328 0.10547 c -12.785 6.918 -19.238 17.914 -19.395 32.965 c -10.414 0.45312 -19.164 5.0586 -26.227 13.781 l -0.11328 0.11328 c -6.2578 7.7031 -9.5898 17.129 -10 28.266 c -1.0078 0.12891 -2.1641 0.30469 -3.4766 0.51172 h -0.097656 c -2.2031 0.375 -3.8008 0.57812 -4.7969 0.61719 c -11.898 -0.09375 -22.277 -4.7227 -31.137 -13.875 c -8.5547 -8.7617 -13.148 -18.699 -13.77 -29.805 c -0.19141 -3.8945 -1.7227 -7.1484 -4.6055 -9.8008 c -2.8672 -2.6367 -6.2461 -3.8594 -10.098 -3.6758 c -3.8906 0.17969 -7.1562 1.7109 -9.793 4.5859 s -3.8633 6.2422 -3.6836 10.105 c 0.097656 2.3594 0.30469 4.6719 0.60937 6.9492 c -13.887 -2.2656 -23.078 -9.0391 -27.551 -20.316 c -6.0664 -17.629 -7.9961 -35.176 -5.8359 -52.672 c 2.2227 -17.969 7.0195 -34.438 14.363 -49.41 z" stroke-linecap="round" />
</g>
</svg>
